src/assets/icons/media-reading-writing,simple,note-empty-alt.svg

<svg width="48" height="48" viewBox="0 0 48 48" fill="none" xmlns="http://www.w3.org/2000/svg">
<rect opacity="0.2" x="5" y="5" width="38" height="38" rx="4" fill="black"/>
<path opacity="0.2" d="M10 18C10 14.2288 10 12.3431 11.1716 11.1716C12.3431 10 14.2288 10 18 10H30C33.7712 10 35.6569 10 36.8284 11.1716C38 12.3431 38 14.2288 38 18V28H32C29.7909 28 28 29.7909 28 32V38H18C14.2288 38 12.3431 38 11.1716 36.8284C10 35.6569 10 33.7712 10 30V18Z" fill="black"/>
<path opacity="0.6" d="M38 28H32C29.7909 28 28 29.7909 28 32V38L38 28Z" fill="black"/>
</svg>

<svg xmlns="http://www.w3.org/2000/svg" width="48" height="48" fill="none" viewBox="0 0 48 48">
  <rect width="38" height="38" x="5" y="5" fill="#000" opacity=".2" rx="4"/>
  <path fill="#000" d="M10 18c0-3.771 0-5.657 1.172-6.828C12.343 10 14.229 10 18 10h12c3.771 0 5.657 0 6.828 1.172C38 12.343 38 14.229 38 18v10h-6a4 4 0 00-4 4v6H18c-3.771 0-5.657 0-6.828-1.172C10 35.657 10 33.771 10 30V18z" opacity=".2"/>
  <path fill="#000" d="M38 28h-6a4 4 0 00-4 4v6l10-10z" opacity=".6"/>
</svg>
